src/assets/file-icon.svg

<svg width="25" height="24" viewBox="0 0 25 24" fill="none" xmlns="http://www.w3.org/2000/svg">
<path d="M21.8746 5.08929C22.1246 5.33929 22.3389 5.67857 22.5174 6.10714C22.696 6.53571 22.7853 6.92857 22.7853 7.28571V22.7143C22.7853 23.0714 22.6603 23.375 22.4103 23.625C22.1603 23.875 21.8567 24 21.4996 24H3.49958C3.14244 24 2.83887 23.875 2.58887 23.625C2.33887 23.375 2.21387 23.0714 2.21387 22.7143V1.28571C2.21387 0.928571 2.33887 0.625 2.58887 0.375C2.83887 0.125 3.14244 0 3.49958 0H15.4996C15.8567 0 16.2496 0.0892857 16.6782 0.267857C17.1067 0.446429 17.446 0.660714 17.696 0.910714L21.8746 5.08929ZM15.9282 1.82143V6.85714H20.9639C20.8746 6.59821 20.7764 6.41518 20.6692 6.30804L16.4773 2.11607C16.3701 2.00893 16.1871 1.91071 15.9282 1.82143ZM21.071 22.2857V8.57143H15.4996C15.1424 8.57143 14.8389 8.44643 14.5889 8.19643C14.3389 7.94643 14.2139 7.64286 14.2139 7.28571V1.71429H3.92815V22.2857H21.071ZM7.35672 10.7143C7.35672 10.5893 7.3969 10.4866 7.47726 10.4062C7.55762 10.3259 7.6603 10.2857 7.7853 10.2857H17.2139C17.3389 10.2857 17.4415 10.3259 17.5219 10.4062C17.6023 10.4866 17.6424 10.5893 17.6424 10.7143V11.5714C17.6424 11.6964 17.6023 11.7991 17.5219 11.8795C17.4415 11.9598 17.3389 12 17.2139 12H7.7853C7.6603 12 7.55762 11.9598 7.47726 11.8795C7.3969 11.7991 7.35672 11.6964 7.35672 11.5714V10.7143ZM17.2139 13.7143C17.3389 13.7143 17.4415 13.7545 17.5219 13.8348C17.6023 13.9152 17.6424 14.0179 17.6424 14.1429V15C17.6424 15.125 17.6023 15.2277 17.5219 15.308C17.4415 15.3884 17.3389 15.4286 17.2139 15.4286H7.7853C7.6603 15.4286 7.55762 15.3884 7.47726 15.308C7.3969 15.2277 7.35672 15.125 7.35672 15V14.1429C7.35672 14.0179 7.3969 13.9152 7.47726 13.8348C7.55762 13.7545 7.6603 13.7143 7.7853 13.7143H17.2139ZM17.2139 17.1429C17.3389 17.1429 17.4415 17.183 17.5219 17.2634C17.6023 17.3438 17.6424 17.4464 17.6424 17.5714V18.4286C17.6424 18.5536 17.6023 18.6562 17.5219 18.7366C17.4415 18.817 17.3389 18.8571 17.2139 18.8571H7.7853C7.6603 18.8571 7.55762 18.817 7.47726 18.7366C7.3969 18.6562 7.35672 18.5536 7.35672 18.4286V17.5714C7.35672 17.4464 7.3969 17.3438 7.47726 17.2634C7.55762 17.183 7.6603 17.1429 7.7853 17.1429H17.2139Z" fill="black"/>
</svg>

<svg width="25" height="24" fill="none" xmlns="http://www.w3.org/2000/svg"><path d="M21.875 5.09c.25.25.464.589.642 1.017.179.429.268.822.268 1.179v15.428c0 .357-.125.661-.375.911a1.24 1.24 0 01-.91.375h-18a1.24 1.24 0 01-.911-.375 1.24 1.24 0 01-.375-.91V1.284c0-.356.125-.66.375-.91S3.142 0 3.499 0h12c.358 0 .75.09 1.18.268.428.178.767.393 1.017.643l4.179 4.178zm-5.947-3.27v5.036h5.036c-.09-.259-.188-.442-.295-.549l-4.192-4.192c-.107-.107-.29-.205-.549-.295zm5.143 20.465V8.57H15.5a1.24 1.24 0 01-.911-.375 1.24 1.24 0 01-.375-.91V1.714H3.928v20.572h17.143zM7.357 10.714a.42.42 0 01.12-.308c.08-.08.183-.12.308-.12h9.429c.125 0 .228.04.308.12.08.08.12.183.12.308v.857c0 .125-.04.228-.12.309a.417.417 0 01-.308.12H7.785a.417.417 0 01-.308-.12.417.417 0 01-.12-.309v-.857zm9.857 3c.125 0 .228.04.308.12.08.081.12.184.12.309V15c0 .125-.04.228-.12.308a.417.417 0 01-.308.12H7.785a.417.417 0 01-.308-.12.417.417 0 01-.12-.308v-.857c0-.125.04-.228.12-.308.08-.08.183-.12.308-.12h9.429zm0 3.429c.125 0 .228.04.308.12.08.08.12.183.12.308v.858a.42.42 0 01-.12.308.417.417 0 01-.308.12H7.785a.417.417 0 01-.308-.12.417.417 0 01-.12-.308v-.858a.42.42 0 01.12-.308c.08-.08.183-.12.308-.12h9.429z" fill="#000"/></svg>
